X:1
T:Arabesque
T:Arabesque
T:Debussy
T:arrangement Patrice Reich
C:Debussy
%%score 1 2 { 3 | ( 4 5 ) }
L:1/8
M:4/4
K:E
V:1 treble nm="Flûte" snm="Fl."
V:2 bass nm="Violoncelle" snm="Vlc"
V:3 treble nm="Piano" snm="Pia."
V:4 bass 
V:5 bass 
V:1
 z8 | z8 | z2 c2 f2 c2- | c2 c2 f2 a2- | a2 a4- (3agf | z8 | z8 | z2 (3efc (3eBc (3GBF | %8
 (3GEG d4 c2 | (3BAB c2- ce de | c2 g4 e2 | (3dcd e2- eg fg | e2 c'4 (3^ac'a | g2 e'4 (3c'e'c' | %14
 g'3 f' g'3 f' | g'3 f g f2 g | a4 g4 | f4 e4 | d4 e2 gb | d4- dc eg | B4- BA ce | %21
 G4 (3z Ac (3egf | d2 G2 z F Ac | E4 (3z FA (3ce=d | G2 F4 =D2 | C8- | C2 C2 E2 C2 | F8- | %28
 F2 F2 A2 F2 | B2 G2 B2 G2 | c8- | c2 A2 B2 c2 | c8- | c2 A2 B2 c2 | d2 e2 f2 g2 | a2 b2 c'2 d'2 | %36
 f'4 e'4 | e8- ||[K:A] (3ede c2- cB Bc | A2 F4 G2 | FE f4 e2 | FE g2- gb af | (3ede c2- cB Bc | %43
 A2 f2- ff fg | (3feB c4 e2 | e6 z2 | (3dfa (3c'ba g4 | (3ceg (3bag f4 | z2 z2 d2 d2 | c4 A4 | %50
 z4 (3GBd (3fed | c4 (3FAc (3edc | (3Bdf a2- ag fg | (3Bdf a2- ag fg | (3ede c2- cB Bc | A2 F4 G2 | %56
 FE f4 e2 | FE g2- gb af | (3ede c2- cB Bc | A2 G2- GF fg | (3feB c4 e2 | e6 z2 | (3=g=fg e4 d2 | %63
 =c2 =G4 c2 | d2 =f2 =g2 a=c' | d'4 =g4 | (3=g=fg e4 d2 | e4 =f4 | (3=g=fg e4 g2 | (3^g^fg e4 g2 || %70
[K:E] a4 g4 | f4 e4 | z2 c2 f2 c2- | c2 c2 f2 a2 | z2 a4- (3agf | z8 | z8 | z2 (3efc (3eBc (3GBF | %78
 (3GEG d4 c2 | (3BAB c2- ce de | c2 g4 e2 | (3dcd e2- eg fg | e2 c'4 (3^ac'a | g2 e'4 (3c'e'c' | %84
 g'3 f' g'3 f' | g'3 f g f2 g | a4 g4 | f4 e4 | a2 bc' ag ag- | g2 f2- f2 e2- | e=d ef dc dc- | %91
 c2 B4 A2- | AG AG cA F2- ||[M:2/4] FE FE ||[M:4/4] A8- | A8 | G8 | F8 | %98
 z2 (3e'f'c' (3e'bc' (3gbf | (3geg d'4 c'2 | b2 (3efc (3eBc (3GBF | (3GEG d4 c2 | G2 G2 B2 e2 | %103
 g2 g2 b2 e'2 | z2 G2 B2 e2 | g2 g4 g2 | E2 z2 z4 |] %107
V:2
 C4 B,4 | A,4 G,4 | F,4 E,4 | D,4 C,4 | B,,8 | E,,B,, E,G, B,G, E,B,, | E,,C, E,G, CG, E,C, | %7
 E,,B,, E,G, B,G, E,B,, | E,,C, E,G, CG, E,C, | F,,C, E,F, A,F, E,C, | G,,C, E,G, B,G, E,C, | %11
 A,,E, F,A, CA, F,E, | ^A,,E, G,C C,F, ^A,E | E,^A, CG F,C E^A |[K:tenor] ^A,E Gc CF ^Ae | %15
 ^A,E Gc CF ^Ae |[K:bass] C4 B,4 | A,4 G,4 | ^^F,4 G,4 | ^^F,4 E,4 | D,4 C,4 | ^B,,4 C,4 | %22
 ^B,,4 =B,,4 | B,,4 B,,4 | B,,4 E,,4 | (3z z E, (3=G,A,B, (3A,E,G, (3A,B,A, | =G,8 | %27
 z2 (3A,B,C (3B,A,B, (3CB,A, | C4 D4 |[K:tenor] D4 E4 | A8- | A2 F2 G2 A2 | A8- | %33
 A2 z2[K:bass] F,4 | B,,2 F,2 A,2 B,2 |[K:tenor] D2 F2 G2 A2 |[K:bass] E,,8 | z4 E4 || %38
[K:A] B,C D4 E,2 | F,2 B,,6 | E,,2 [G,D]6 | A,,2 [E,A,]6 | B,C D6 | F,2 B,,4 A,,2 | %44
 G,,2 F,,4 B,,2 | E,,4 E,,2 E,2 | z2 F,,4 E,,2 | z2 A,,4 D,2 | z2 B,,2 F,2 E,2 | A,,2 E,2 FE DC | %50
 z2 F,,4 E,,2 | z2 A,,4 D,2 | z2 B,, z F,4 | z2 D, z F,4 | E,4 F,2 G,2 | A,4 B,,4 | E,,2 [G,D]6 | %57
 A,,2 [E,A,]6 | B,C D6 | F,4 B,,2 A,,2 | G,,2 F,,4 B,,2 | E,,4 E,,2 E,2 | E,,2 =F,,4 =G,,2 | %63
 A,,2 B,,4 A,,2 | =G,,2 =F,,2 E,,2 D,,2 | =G,,8 |[K:tenor] E4 =F4 | =G4 =F4 | E8- | E6- E^D || %70
[K:E][K:bass] C4 B,4 | A,4 G,4 | F,4 E,4 | D,4 C,4 | B,,8 | E,,B,, E,G, B,G, E,B,, | %76
 E,,C, E,G, CG, E,C, | E,,B,, E,G, B,G, E,B,, | E,,C, E,G, CG, E,C, | F,,C, E,F, A,F, E,C, | %80
 G,,C, E,G, B,G, E,C, | A,,E, F,A, CA, F,E, | ^A,,E, G,C C,F, ^A,E | E,^A, CG F,C E^A | %84
[K:tenor] ^A,E Gc CF ^Ae | ^A,E Gc CF ^Ae |[K:bass] C4 B,4 | A,4 G,4 | C4 B,4 | A,4 G,4 | F,4 E,4 | %91
 =D,4 C,4 | B,,4 A,,4 ||[M:2/4] G,,4 ||[M:4/4] F,,8- | F,,8 | B,,8 | B,,8 | %98
 E,,B,, E,G, B,G, E,B,, | E,,C, E,G, CG, E,C, | E,,B,, E,G, B,G, E,B,, | E,,C, E,G, CG, E,C, | %102
 E,,2 B,,2 E,2 G,2 | E,2 B,2 E2 G2 | E,2 B,2 E2 G2 |[K:tenor] [EB]2 [EB]4 [EB]2 | %106
[K:bass] E,,2 z2 z4 |] %107
V:3
 z2 (3cef (3gdB z2 | z2 (3Acd (3eBG z2 | z2 (3cFA f2 (3cFA- | A2 (3cFA f2 (3aAc | z2 a4- (3agf | %5
 z2 (3efc (3eBc (3GBF | (3GEG D4 C2 | B,2 z2 (3GEG B2 | z2 z2 z2 z2 | %9
[K:bass] z2 [C,E,F,A,]2 [E,F,A,C]4 | z2 [C,E,G,B,]2 [E,G,B,C]4 | z2 [A,,C,E,F,]2 [C,E,F,A,]4 | %12
 z2 [E,G,^A,C]2 z2 [G,A,CE]2 | z2 [^A,CEG]2 z2 [CEG^A]2 |[K:treble] z2 [EG^Ac]2 z2 [GAce]2 | %15
 z2 [EG^Ac]2 z2 [GAce]2 | z2 (3cef (3gdB z2 | z2 (3Acd (3eBG z2 | (3z ^^F^A (3cAF (3z GB (3cBG | %19
 (3z ^^F^A (3cAF (3z E=A (3cAE | (3z DF (3BFD (3z EF (3cFE | (3z DF (3GFD (3z CE (3AEC | %22
 (3z DF (3GFD (3z B,=D (3ADB, | (3z =DE B2 (3z DF A2 | (3z EG B2 [EG=d]4 | z2 [A,E=G]6 | %26
 (3E-C-A,- [A,CE]6 | z2 [A,=DF]6 | z2 [B,FA]2 [FAcd]4 | z2 [B,CEG]2 [EGBc]4 | [FA-c-e]8 | %31
 [Ac]2 [FA]2 [GB]2 [Ac]2 | [EFA-c-]8 | [Ac]2 (3FCE (3GDF (3AEG | (3BFA (3cGB (3dAc (3eBd | %35
 (3fce (3gdf (3aeg (3bfa | [gbf']4 e'4 | e8 ||[K:A] [GAce]2 [EFAc]4 [EFB]2 | [FA]2 [^DF]2 z2 G2 | %40
 [G,DF]2 [GBdf]4 e2 | [A,CF]2 [A-c-e-g]4 [Acef]2 | [GAce]2 [EFAc]4 [EFB]2 | [FA]2 [^DF]2 z2 [DF]2 | %44
 [E,G,B,]2 [A,C]4 [A,CE]2 | [A,B,E]2 G,4 z2 | z2 [DFAc]2 (3G,B,D (3FED | z2 [CEGB]2 (3FAc (3edc | %48
 (3Bdf a2 [Bd]g [Gdf]e | [Acf]e dc [Ad]c BA | (3D,F,A, (3CB,A, z2 [GBdf]2 | %51
 (3CEG (3BAG z2 [FAce]2 | z4 [Bdfa]4 | z4 [Bdfa]4 | [GAce]2 [EFAc]2 [EFAc]2 [D=FGB]2 | %55
 [EFA]4 [B,^DF]4 | [G,DF]2 [GBdf]4 e2 | [A,CF]2 [A-c-e-g]4 [Acef]2 | %58
 [GAce]2 [EFAc]2 [EFAc]2 [D=FGB]2 | [EA]2 G2 [B,^DF]4 | [E,G,B,]2 [A,C]4 [A,CE]2 | %61
 [A,B,E]2 G,4 z2 | [=G,=CE]2 [A,CE]4 [=F,B,=D]2 | [=E,A,=C]2 [=D,F,=G,=B,]4 [E,A,C]2 | %64
 [D,=F,B,]2 [=C,F,A,]2 [C,=G,=C]2 [A,C=F]2 | [D=FB]4 [FBd]4 | z2 [A=ce=g]4 [Acd]2 | [=ce]4 =f4 | %68
 z2 [=ce=g]4 z2 | z2 [B^ce^gb]4 z2 ||[K:E] z2 (3cef (3gdB z2 | z2 (3Acd (3eBG z2 | %72
 z2 (3cFA f2 (3cFA- | A2 (3cFA f2 (3aAc | z2 a4- (3agf | z2 (3efc (3eBc (3GBF | (3GEG D4 C2 | %77
 B,2 z2 (3GEG B2 | z2 z2 z2 z2 |[K:bass] z2 [C,E,F,A,]2 [E,F,A,C]4 | z2 [C,E,G,B,]2 [E,G,B,C]4 | %81
 z2 [A,,C,E,F,]2 [C,E,F,A,]4 | z2 [E,G,^A,C]2 z2 [G,A,CE]2 | z2 [^A,CEG]2 z2 [CEG^A]2 | %84
[K:treble] z2 [EG^Ac]2 z2 [GAce]2 | z2 [EG^Ac]2 z2 [GAce]2 | z2 (3cef (3gdB z2 | %87
 z2 (3Acd (3eBG z2 | (3z EA (3[ce]AE (3z DG (3[Bd]GD | (3cCF (3AFC (3BB,E (3GEB, | %90
[K:bass] (3z A,=D (3[FA]DA, (3z G,C (3[EG]CG, | (3FF,B, (3=DB,F, (3EE,A, (3CA,E, | %92
 (3=D^E,G, (3B,G,E, (3CC,F, (3A,F,C, ||[M:2/4] (3B,B,,E, (3G,E,B,, || %94
[M:4/4][K:treble] z4 (3CEA (3Bce | (3abc' (3e'c'b (3aec (3BAE | G4 (3GBd (3gbB | F4 (3ABd (3abB | %98
 E2 (3GEG B2 z2 | z2 (3GEG c2 z2 | E2 (3GEG B2 z2 | z2 (3GEG c2 z2 | %102
 (3z B,E, (3z CG, (3z EB, (3z FC | (3z BE (3z cG (3z eB (3z fc | (3z be (3z c'g (3z e'b (3z f'c' | %105
 [e'g']2 [e'g']4 [e'g']2 | E2 z6 |] %107
V:4
 (3CEA z4 (3GDB, | (3A,CF z4 (3EB,G, | (3F,A,C- C2 (3E,A,E- E2 | (3D,A,C- C2 (3C,A,E- E2 | %4
 (3B,,F,A, (3CDF (3Acd (3cBA | E,,2 [B,E]6 | E,,2 [C,E,G,]6 | E,,2 [G,B,E]6 | E,,2 [E,G,C]6 | %9
 F,,8 | G,,8 | A,,8 | ^A,,4 C,4 | E,4 F,4 | ^A,4 C4 | ^A,4 C4 | (3CEA z4 (3GDB, | %17
 (3A,CF z4 (3EB,G, | (3^^F,CD (3^ADC (3G,CE (3BEC | (3^^F,CD (3^ADC (3E,=A,C (3GCA, | %20
 (3D,A,B, (3FB,A, (3C,F,A, (3EA,F, | (3^B,,F,G, (3DG,F, (3C,F,A, (3EA,F, | %22
 (3^B,,F,G, (3DG,F, (3=B,,F,A, (3=DA,F, | (3B,,E,G, (3=DG,E, (3B,,F,A, (3DA,F, | %24
 (3B,,E,G, (3=DG,E, (3E,,B,,E, (3F,G,B, | (3A,,,A,,E, z6 | z2 =G,6 | =D,,A,, F,6 | %28
 B,,,B,, F,A, B,2 z2 | G,,,G,, E,G, B,4 | (3F,,,F,,C, (3E,F,A, (3CEF (3AGF | E4 D2 C2 | %32
 (3F,,,F,,C, (3E,F,A, (3CEF (3AGF | E4 F,4 | B,,2 F,2 A,2 B,2 | D2 F2 A2 B2 | %36
 E,,,E,, B,,E, G,B, EG | z4 E4 ||[K:A] [A,E]2 [A,E]2 G,2 [E,G,D]2 | [F,C]2 [B,,A,]6 | %40
 [E,,B,,]2 [E,DF]4 E2 | [A,,E,]2 [E,A,CE]6 | [A,E]2 [A,E]2 G,2 [E,G,D]2 | %43
 [F,C]2 [B,,A,]4 [A,,^D,]2 | [G,,E,]2 [F,,E,]4 [B,,,B,,]2 | [E,,B,,]4 E,,2 E,2 | z2 F,,4 E,,2 | %47
 z2 [A,,,A,,]4 [D,,D,]2 | z2 [B,,,B,,]2 [F,B,DF]2 [E,,E,]2 | [A,,,A,,]2 E,2 FE DC | z2 F,,4 E,,2 | %51
 z2 [A,,,A,,]4 [D,,D,]2 | z2 [B,,,B,,]2 [F,B,DF]4 | z2 [D,,D,]2 [F,B,DF]4 | [E,D]4 F,2 G,2 | %55
 [A,C]4 [B,,A,]4 | [E,,B,,]2 [G,DF]4 E2 | [A,,E,]2 [E,A,CE]6 | [B,F]C D4 =F2 | %59
 [F,C]4 [B,,A,]2 [A,,^D,]2 | [G,,E,]2 [F,,E,]4 [B,,,B,,]2 | [E,,B,,]4 E,,2 E,2 | %62
 [E,,=C,]2 [=F,,C,]4 =G,,2 | A,,2 B,,4 A,,2 | =G,,2 =F,,2 E,,2 [D,,D,]2 | %65
 =G,,,=G,, D,=F, =G,B, D=F | [E=G]4 [=FA]4 | [=G_B]4 [=F=A]4 | [E=G]8 | ^G6- G^D || %70
[K:E] (3CEA z4 (3GDB, | (3A,CF z4 (3EB,G, | (3F,A,C- C2 (3E,A,E- E2 | (3D,A,C- C2 (3C,A,E- E2 | %74
 (3B,,F,A, (3CDF (3Acd (3cBA | E,,2 [B,E]6 | E,,2 [C,E,G,]6 | E,,2 [G,B,E]6 | E,,2 [E,G,C]6 | %79
 F,,8 | G,,8 | A,,8 | ^A,,4 C,4 | E,4 F,4 | ^A,4 C4 | ^A,4 C4 | (3CEA z4 (3GDB, | %87
 (3A,CF z4 (3EB,G, | C4 B,4 | A,4 G,4 | F,4 E,4 | =D,4 C,4 | B,,4 A,,4 ||[M:2/4] G,,4 || %94
[M:4/4] (3F,,C,E, (3F,A,B, z4 | z8 | (3B,,,B,,D, (3G,B,D z4 | (3B,,,B,,D, (3A,B,D z4 | %98
 E,,2 [G,B,E]6 | E,,2 [E,G,C]6 | E,,2 [G,B,E]6 | E,,2 [E,G,C]6 | E,,2 B,,2 E,2 G,2 | %103
 E,2 B,2 E2 G2 |[K:treble] E2 B2 e2 g2 | [eb]2 [eb]4 [eb]2 |[K:bass] [E,,E,]2 z6 |] %107
V:5
 x8 | x8 | x8 | x8 | x8 | x2 G,6 | x8 | x8 | x8 | x8 | x8 | x8 | x8 | x8 | x8 | x8 | x8 | x8 | x8 | %19
 x8 | x8 | x8 | x8 | x8 | x8 | x8 | x8 | x8 | x8 | x8 | x8 | x8 | x8 | x8 | x8 | x8 | x8 | x8 || %38
[K:A] x8 | x8 | x8 | x8 | x8 | x8 | x8 | x8 | x8 | x8 | x8 | x8 | x8 | x8 | x8 | x8 | x8 | x8 | %56
 x8 | x8 | x8 | x8 | x8 | x8 | x8 | x8 | x8 | x8 | x8 | x8 | x8 | x8 ||[K:E] x8 | x8 | x8 | x8 | %74
 x8 | x2 G,6 | x8 | x8 | x8 | x8 | x8 | x8 | x8 | x8 | x8 | x8 | x8 | x8 | x8 | x8 | x8 | x8 | %92
 x8 ||[M:2/4] x4 ||[M:4/4] x8 | x8 | x8 | x8 | x8 | x8 | x8 | x8 | x8 | x8 |[K:treble] x8 | x8 | %106
[K:bass] x8 |] %107

